X:1
T:Per la gloria d'adorarvi
T:Giovanni Bononcini (1670-1747)
T:From the opera "Griselda" (1722). Libretto by Paolo Antonio Rolli (1687 -1765)
T:Per la gloria d'adorarvi
T:Copyright © 
C:Giovanni Bononcini (1670-1747)
Z:From the opera "Griselda" (1722).
Z:Libretto by Paolo Antonio Rolli (1687 -1765)
Z:Copyright ©
%%score { 1 2 3 }
L:1/8
Q:1/4=80
M:3/4
K:F
V:1 treble nm="P1"
V:2 treble nm="Soprano"
V:3 bass nm="P3"
V:1
"^Andante""^Ernesto (sung by \"Signor Benedetti\")" c'3 b a2 | (bg) (c'2 b2) | af (d'2 f2) | %3
w: [violin?] * *|||
{Tf} e4 f2 | g2 a4 | (ba)(bg)(af) | d'2 Tg4 | f4 z2 |:"^pia" (c3 B) A2 | (BG) (c2 B2) | %10
w: |||||||
 (AF) (d2 F2) |{F} E4 F2 | G2 A4 | (BA)(BG)(AF) | d2 TG4 | F4 z2 :: (cB)AGF_E |{_E} D6 | (dc)BAGF | %19
w: |||||||||
{F} E6 | TF2 z2 z2 | TB3 z/ G/ A2- | A>B G4 | F4 z2 :: Tc3 (B/c/) d2 | e3 (d/e/) f2 | FG TG4 | %27
w: ||||||||
 F4 z2 :|"^for." c'3 b a2 | (bg) (c'2 b2) | (af) (d'2 f2) |{Tf} e4 f2 |"^rit." g2 a4 | %33
w: ||||||
 (ba)(bg)(af) | d'2 Tg4 | !fermata!f4 z2 |] %36
w: |||
V:2
 z6 | z6 | z6 | z6 | z6 | z6 | z6 | z6 |: (c3 B) A2 | (BG) (c2 B2) | (AF) (d2 F2) |{F} E4 F2 | %12
w: ||||||||Per _ la|glo- * ria _|d'a- * do- *|* vi,|
w: ||||||||Sen- * za|spe- * me _|di _ di- *|* to|
 G2 A4 | (BA) (BG) (AF) | d2 TG4 | F4 z2 :: (cB) AG F_E |{_E} D6 | (dc) BA GF |{F} E6 | F2 z2 z2 | %21
w: vo- glio\_a-|mar- * vi o lu- *|ci- ca-|re.|a- * man- do pe- ne-||ma _ sem- pre- v'a- me-||sì,|
w: va- no|af- fet- to\è _ sos- *|pi- ra-|re.|ma i vos- tri dol- ci||chi _ vag- ghe- giar può||è|
 B3 z/ G/ A2- | A>B G4 | F4 z2 :: c3 (B/c/) d2 | e3 (d/e/) f2 | FG{A} G4 | F4 z2 :| z6 | z6 | z6 | %31
w: sì, nel mio|_ pe- na-|re.|Pe- ne- * rò,|v'a- me- * rò,|ca- re, *|re.||||
w: non, * *|* v'a- ma-|re.||||||||
 z6 | z6 | z6 | z6 | z6 |] %36
w: |||||
w: |||||
V:3
 F,,4 F,2- | F,2 E,2 C,2 | F,2 B,2 =B,2 | C3 _B, A,2 | E,2 F,2 F,,2 | G,2 E,2 F,2 | B,2 C2 C,2 | %7
w: [Continuo] *|4~2 * *||||||
 F,E,F,C,A,,C, |: F,,2 z2 F,2- | F,2 E,2 C,2 | F,2 B,2 =B,2 | C3 _B, A,2 | E,2 F,2 F,,2 | %13
w: ||||||
 G,2 E,2 F,2 | B,,2 C,2 C,,2 | F,E,F,C,F,C, :: A,,2 z2 A,2 | B,A,B,D,F,D, | B,,2 z2 =B,2 | %19
w: ||||||
 C=B,CG,C_B, | A,G,A,F,B,A, | G,F,G,E,F,C, | D,B,, C,2 C,,2 | F,E,F,C,F,C, :: A,,2 z2 B,,2 | %25
w: ||||||
 C,2 z2 D,2 | A,,B,, C,2 C,,2 | F,E,F,C,F,C, :| F,,4 F,2- | F,2 E,2 C,2 | F,2 B,2 =B,2 | %31
w: ||||4~2 * *||
 C3 _B, A,2 | E,2 F,2 F,,2 | G,2 E,2 F,2 | B,,2 C,2 C,,2 | !fermata!F,,4 z2 |] %36
w: |||||

